src/game/GamePart/Arena/Resources/img/Lifebuoy.svg

<svg width="41" height="41" viewBox="0 0 41 41" fill="none" xmlns="http://www.w3.org/2000/svg">
<g clip-path="url(#clip0)">
<path d="M39.398 12.4029C38.9995 11.476 38.5316 10.5783 38.0048 9.72367L38.0918 9.63671C38.7168 9.01172 38.7168 7.99791 38.0918 7.37293L33.5636 2.84505C33.2633 2.54476 32.8563 2.37616 32.4315 2.37616C32.0071 2.37616 31.5998 2.54476 31.2995 2.84505L31.18 2.96455C25.5148 -0.461312 18.5911 -0.954296 12.4776 1.67516C11.5867 2.05834 10.7224 2.50597 9.89789 3.00771L9.79185 2.90167C9.49155 2.60138 9.08428 2.43277 8.6598 2.43277C8.23501 2.43277 7.82805 2.60138 7.52775 2.90167L2.99988 7.42955C2.37458 8.05453 2.37458 9.06834 2.99988 9.69333L3.10029 9.79405C1.52124 12.3781 0.522137 15.3007 0.196193 18.313C-0.180739 21.7999 0.35635 25.3556 1.7499 28.5953C2.13278 29.4858 2.5804 30.3504 3.08246 31.1753L3.05618 31.2013C2.4312 31.8266 2.4312 32.8401 3.05618 33.4651L7.58437 37.9932C7.88435 38.2935 8.29163 38.4621 8.71642 38.4621C9.1409 38.4621 9.54817 38.2935 9.84846 37.9932L9.86848 37.9729C13.142 39.9783 16.8381 40.9999 20.5611 40.9999C23.3029 40.9999 26.0597 40.446 28.6703 39.323C29.5972 38.9242 30.4937 38.4565 31.3492 37.9294L31.3561 37.9366C31.6564 38.2369 32.0637 38.4055 32.4881 38.4055C32.9129 38.4055 33.3202 38.2369 33.6202 37.9366L38.1484 33.4084C38.7734 32.7835 38.7734 31.7696 38.1484 31.1447L31.2279 24.2241C31.637 23.0574 31.8603 21.8039 31.8603 20.4989C31.8603 19.1191 31.6107 17.7963 31.1553 16.5729L35.6656 12.0625C35.9556 12.583 36.2209 13.1192 36.4567 13.6678C37.8037 16.7994 38.1834 20.2484 37.555 23.6414C37.3942 24.5107 37.9682 25.3462 38.8375 25.5069C38.936 25.5254 39.0343 25.5342 39.1309 25.5342C39.8876 25.5342 40.5604 24.9952 40.7034 24.2244C41.4476 20.2064 40.9962 16.1184 39.398 12.4029ZM13.7429 4.61616C18.6555 2.50347 24.1888 2.78093 28.8346 5.30966L24.2992 9.84535C23.1321 9.4362 21.8787 9.21286 20.574 9.21286C19.238 9.21286 17.9558 9.44683 16.7652 9.87507L12.2408 5.35032C12.7285 5.08256 13.2302 4.83669 13.7429 4.61616ZM28.6585 20.4992C28.6585 23.5885 26.9161 26.2783 24.363 27.6387C24.211 27.6869 24.0652 27.7585 23.9301 27.8533C22.9075 28.3219 21.7708 28.5837 20.574 28.5837C16.1162 28.5837 12.4895 24.957 12.4895 20.4992C12.4895 16.0414 16.1162 12.4147 20.574 12.4147C25.0318 12.4147 28.6585 16.0414 28.6585 20.4992ZM8.6598 6.2975L13.8227 11.4601C12.9643 12.1029 12.2008 12.8649 11.5554 13.721L6.39571 8.56128L8.6598 6.2975ZM4.69122 27.3303C2.55538 22.3642 2.85474 16.8006 5.44039 12.1342L9.96201 16.6558C9.52596 17.856 9.2876 19.1501 9.2876 20.4992C9.2876 21.8352 9.52158 23.1174 9.94981 24.308L5.42538 28.8324C5.15762 28.3444 4.91144 27.8427 4.69122 27.3303ZM6.45232 32.3333L11.5351 27.2505C12.1776 28.1086 12.9396 28.8724 13.7961 29.5174L8.71642 34.5974L6.45232 32.3333ZM27.4054 36.382C22.4505 38.5128 16.8769 38.2141 12.2102 35.6316L16.7305 31.1109C17.9308 31.5469 19.2252 31.7853 20.574 31.7853C21.9541 31.7853 23.2769 31.536 24.5 31.0805L29.011 35.5915C28.4908 35.8815 27.9543 36.1458 27.4054 36.382ZM34.7522 32.2767L32.4881 34.5408L27.416 29.4683C28.2675 28.8174 29.0241 28.0482 29.6607 27.1852L34.7522 32.2767ZM27.2599 11.4125L32.4315 6.24088L34.6956 8.50466L29.5434 13.6569C28.8921 12.8054 28.1229 12.0491 27.2599 11.4125Z" fill="#ffffff"/>
</g>
<defs>
<clipPath id="clip0">
<rect width="41" height="41" fill="white"/>
</clipPath>
</defs>
</svg>

<svg width="41" height="41" fill="none" xmlns="http://www.w3.org/2000/svg"><g clip-path="url(#clip0)"><path d="M39.398 12.403a20.682 20.682 0 0 0-1.393-2.68l.087-.086a1.601 1.601 0 0 0 0-2.264l-4.528-4.528a1.6 1.6 0 0 0-2.265 0l-.119.12a20.432 20.432 0 0 0-18.702-1.29c-.891.383-1.756.831-2.58 1.333l-.106-.106a1.601 1.601 0 0 0-2.264 0L3 7.43a1.6 1.6 0 0 0 0 2.263l.1.101a20.639 20.639 0 0 0-2.904 8.519 20.5 20.5 0 0 0 2.886 12.862l-.026.026a1.601 1.601 0 0 0 0 2.264l4.528 4.528a1.6 1.6 0 0 0 2.264 0l.02-.02A20.444 20.444 0 0 0 20.561 41c2.742 0 5.499-.554 8.11-1.677a20.737 20.737 0 0 0 2.678-1.394l.007.008a1.601 1.601 0 0 0 2.264 0l4.528-4.529a1.6 1.6 0 0 0 0-2.263l-6.92-6.92c.409-1.168.632-2.421.632-3.726 0-1.38-.25-2.703-.705-3.926l4.51-4.51a17.22 17.22 0 0 1 1.89 11.579 1.6 1.6 0 1 0 3.148.582 20.41 20.41 0 0 0-1.305-11.821zM13.743 4.616a17.237 17.237 0 0 1 15.092.694l-4.536 4.535a11.239 11.239 0 0 0-3.725-.632c-1.336 0-2.618.234-3.809.662L12.241 5.35c.488-.267.99-.513 1.502-.734zM28.658 20.5c0 3.09-1.742 5.78-4.295 7.14-.152.048-.298.12-.433.214a8.036 8.036 0 0 1-3.356.73c-4.458 0-8.085-3.626-8.085-8.084s3.627-8.084 8.085-8.084c4.458 0 8.084 3.626 8.084 8.084zM8.66 6.298l5.163 5.162a11.394 11.394 0 0 0-2.268 2.261l-5.16-5.16L8.66 6.298zM4.69 27.33a17.198 17.198 0 0 1 .75-15.196l4.521 4.522a11.233 11.233 0 0 0-.674 3.843c0 1.336.234 2.618.662 3.809l-4.525 4.524a17.45 17.45 0 0 1-.734-1.502zm1.761 5.003l5.083-5.082a11.37 11.37 0 0 0 2.261 2.266l-5.08 5.08-2.264-2.264zm20.953 4.049a17.225 17.225 0 0 1-15.195-.75l4.52-4.521c1.2.436 2.495.674 3.844.674 1.38 0 2.703-.249 3.926-.704l4.511 4.51c-.52.29-1.057.555-1.606.791zm7.347-4.105l-2.264 2.264-5.072-5.073c.851-.65 1.608-1.42 2.245-2.283l5.091 5.092zM27.26 11.413L32.43 6.24l2.265 2.264-5.153 5.152a11.385 11.385 0 0 0-2.283-2.245z" fill="#fff"/></g><defs><clipPath id="clip0"><path fill="#fff" d="M0 0h41v41H0z"/></clipPath></defs></svg>
